img/bg.svg

<svg width="1060" height="1179" viewBox="0 0 1060 1179" fill="none" xmlns="http://www.w3.org/2000/svg">
<path fill-rule="evenodd" clip-rule="evenodd" d="M1018.47 550.773L1019.63 555.611L1020.88 560.485L1022.2 565.401L1023.6 570.363L1025.07 575.377L1026.61 580.446L1028.2 585.575L1029.85 590.768L1031.53 596.029L1033.26 601.359L1035 606.762L1036.77 612.239L1038.54 617.792L1040.3 623.423L1042.05 629.13L1043.78 634.915L1045.47 640.777L1047.12 646.713L1048.71 652.724L1050.24 658.806L1051.69 664.957L1053.05 671.173L1054.31 677.452L1055.48 683.788L1056.52 690.178L1057.45 696.617L1058.24 703.101L1058.9 709.622L1059.41 716.177L1059.77 722.758L1059.97 729.36L1060 735.976L1059.86 742.6L1059.55 749.224L1059.06 755.842L1058.39 762.448L1057.53 769.034L1056.49 775.596L1055.26 782.127L1053.84 788.622L1052.25 795.076L1050.47 801.486L1048.51 807.848L1046.38 814.158L1044.08 820.414L1041.62 826.615L1039 832.76L1036.23 838.847L1033.31 844.878L1030.25 850.854L1027.06 856.775L1023.75 862.645L1020.32 868.466L1016.78 874.241L1013.14 879.975L1009.41 885.671L1005.58 891.336L1001.67 896.972L997.685 902.588L993.627 908.187L989.503 913.775L985.315 919.359L981.07 924.943L976.768 930.535L972.414 936.139L968.008 941.76L963.551 947.403L959.045 953.073L954.488 958.773L949.881 964.508L945.221 970.278L940.506 976.088L935.734 981.937L930.9 987.826L926.003 993.755L921.037 999.723L915.998 1005.73L910.88 1011.76L905.68 1017.83L900.392 1023.92L895.01 1030.02L889.529 1036.14L883.944 1042.26L878.251 1048.37L872.445 1054.48L866.521 1060.56L860.475 1066.61L854.305 1072.61L848.006 1078.57L841.577 1084.46L835.014 1090.28L828.317 1096.01L821.484 1101.65L814.514 1107.18L807.407 1112.59L800.164 1117.87L792.785 1123.01L785.273 1127.99L777.629 1132.8L769.857 1137.43L761.959 1141.87L753.94 1146.11L745.805 1150.14L737.557 1153.95L729.204 1157.52L720.751 1160.85L712.205 1163.92L703.573 1166.73L694.863 1169.27L686.083 1171.53L677.241 1173.51L668.345 1175.19L659.406 1176.57L650.433 1177.65L641.436 1178.42L632.423 1178.87L623.407 1179L614.396 1178.81L605.402 1178.3L596.435 1177.46L587.506 1176.3L578.625 1174.81L569.802 1173L561.048 1170.87L552.374 1168.42L543.788 1165.65L535.302 1162.57L526.923 1159.19L518.662 1155.51L510.527 1151.53L502.525 1147.27L494.666 1142.73L486.956 1137.93L479.401 1132.87L472.008 1127.56L464.782 1122.01L457.729 1116.24L450.851 1110.25L444.154 1104.06L437.64 1097.68L431.31 1091.12L425.167 1084.4L419.212 1077.53L413.444 1070.52L407.863 1063.38L402.468 1056.13L397.257 1048.78L392.228 1041.34L387.377 1033.83L382.702 1026.26L378.197 1018.64L373.859 1010.98L369.682 1003.29L365.661 995.586L361.791 987.878L358.063 980.173L354.473 972.483L351.01 964.82L347.665 957.192L344.429 949.612L341.289 942.091L338.235 934.639L335.252 927.266L332.328 919.982L329.449 912.797L326.6 905.718L323.766 898.753L320.933 891.908L318.085 885.19L315.207 878.604L312.284 872.151L309.301 865.837L306.244 859.661L303.096 853.625L299.845 847.729L296.477 841.97L292.977 836.346L289.333 830.855L285.533 825.492L281.563 820.251L277.413 815.128L273.071 810.115L268.526 805.206L263.77 800.391L258.794 795.662L253.594 791.008L248.165 786.416L242.506 781.874L236.616 777.368L230.498 772.883L224.156 768.406L217.596 763.92L210.828 759.41L203.86 754.861L196.706 750.257L189.38 745.582L181.898 740.822L174.277 735.961L166.537 730.986L158.699 725.884L150.785 720.641L142.819 715.247L134.825 709.69L126.83 703.962L118.858 698.054L110.939 691.959L103.098 685.673L95.3631 679.189L87.7628 672.507L80.3243 665.624L73.075 658.541L66.0416 651.259L59.2505 643.782L52.7269 636.113L46.4952 628.259L40.5786 620.227L34.999 612.025L29.7769 603.662L24.9312 595.15L20.479 586.499L16.4358 577.722L12.815 568.833L9.6281 559.845L6.88463 550.773L4.59195 541.631L2.75534 532.436L1.37791 523.201L0.460652 513.943L0.00243249 504.677L0 495.417L0.44766 486.179L1.33684 476.977L2.65617 467.824L4.39169 458.732L6.52705 449.713L9.04372 440.777L11.9213 431.933L15.1376 423.189L18.6691 414.551L22.4912 406.024L26.5783 397.611L30.9042 389.314L35.4426 381.133L40.1669 373.068L45.0509 365.115L50.0688 357.271L55.1958 349.531L60.4078 341.89L65.6822 334.34L70.9979 326.873L76.3354 319.482L81.6772 312.158L87.0079 304.891L92.3143 297.673L97.5856 290.495L102.814 283.348L107.992 276.225L113.119 269.119L118.191 262.022L123.208 254.93L128.171 247.836L133.083 240.735L137.948 233.624L142.769 226.499L147.555 219.358L152.311 212.2L157.046 205.024L161.77 197.833L166.492 190.627L171.222 183.409L175.973 176.185L180.755 168.958L185.58 161.736L190.461 154.527L195.408 147.337L200.435 140.178L205.552 133.058L210.771 125.99L216.102 118.986L221.557 112.057L227.144 105.217L232.872 98.4802L238.75 91.8601L244.784 85.371L250.98 79.0274L257.344 72.8438L263.88 66.8347L270.589 61.0141L277.474 55.3962L284.536 49.9942L291.773 44.8213L299.184 39.8895L306.766 35.2106L314.514 30.7952L322.424 26.653L330.489 22.7929L338.702 19.2223L347.055 15.9477L355.539 12.9745L364.144 10.3065L372.86 7.94646L381.675 5.89557L390.58 4.15381L399.56 2.71975L408.606 1.5907L417.703 0.763399L426.842 0.234379L436.01 0L445.197 0.0563641L454.391 0.399278L463.583 1.02421L472.762 1.92625L481.918 3.10007L491.042 4.53992L500.124 6.23958L509.154 8.19238L518.125 10.3912L527.028 12.8283L535.854 15.4956L544.595 18.3846L553.245 21.4862L561.796 24.791L570.241 28.2891L578.575 31.9703L586.792 35.8241L594.886 39.8395L602.854 44.0055L610.69 48.3108L618.391 52.7437L625.955 57.2926L633.378 61.9458L640.66 66.6914L647.798 71.5175L654.791 76.4123L661.64 81.3639L668.345 86.3606L674.907 91.3909L681.327 96.4435L687.607 101.507L693.75 106.572L699.759 111.626L705.636 116.662L711.386 121.668L717.013 126.636L722.522 131.559L727.918 136.427L733.205 141.235L738.389 145.976L743.475 150.644L748.471 155.235L753.38 159.743L758.21 164.166L762.965 168.5L767.654 172.743L772.28 176.894L776.849 180.952L781.369 184.916L785.843 188.788L790.278 192.567L794.679 196.257L799.049 199.857L803.395 203.372L807.72 206.805L812.029 210.158L816.325 213.435L820.611 216.641L824.891 219.779L829.168 222.855L833.444 225.873L837.721 228.838L842.002 231.754L846.288 234.627L850.581 237.461L854.881 240.262L859.191 243.034L863.51 245.783L867.839 248.511L872.18 251.225L876.531 253.929L880.895 256.625L885.269 259.321L889.652 262.021L894.043 264.731L898.438 267.459L902.833 270.211L907.224 272.995L911.606 275.817L915.972 278.685L920.317 281.606L924.633 284.586L928.915 287.632L933.154 290.749L937.343 293.942L941.475 297.217L945.541 300.578L949.534 304.028L953.445 307.57L957.269 311.207L960.996 314.94L964.62 318.771L968.133 322.7L971.529 326.726L974.802 330.85L977.944 335.07L980.95 339.385L983.814 343.792L986.532 348.289L989.097 352.873L991.508 357.539L993.76 362.284L995.854 367.101L997.788 371.986L999.564 376.932L1001.18 381.932L1002.65 386.98L1003.96 392.07L1005.13 397.193L1006.16 402.343L1007.05 407.514L1007.82 412.698L1008.47 417.889L1009.02 423.081L1009.46 428.268L1009.82 433.444L1010.1 438.606L1010.31 443.748L1010.47 448.866L1010.58 453.959L1010.66 459.022L1010.71 464.054L1010.76 469.054L1010.8 474.022L1010.86 478.956L1010.94 483.859L1011.05 488.73L1011.19 493.573L1011.39 498.389L1011.65 503.182L1011.97 507.956L1012.35 512.713L1012.82 517.458L1013.37 522.197L1014 526.933L1014.71 531.673L1015.52 536.421L1016.41 541.183L1017.4 545.966L1018.47 550.773Z" fill="url(#paint0_linear)"/>
<defs>
<linearGradient id="paint0_linear" x1="-3496.77" y1="4306.71" x2="-2635.97" y2="5005.62" gradientUnits="userSpaceOnUse">
<stop stop-color="#3A6BEB"/>
<stop offset="1" stop-color="#3A6BEB" stop-opacity="0.89"/>
</linearGradient>
</defs>
</svg>

<svg width="1060" height="1179" fill="none" xmlns="http://www.w3.org/2000/svg"><path fill-rule="evenodd" clip-rule="evenodd" d="M1018.47 550.773l1.16 4.838 1.25 4.874 1.32 4.916 1.4 4.962 1.47 5.014 1.54 5.069 1.59 5.129 1.65 5.193 1.68 5.261 1.73 5.33 1.74 5.403 1.77 5.477 1.77 5.553 1.76 5.631 1.75 5.707 1.73 5.785 1.69 5.862 1.65 5.936 1.59 6.011 1.53 6.082 1.45 6.151 1.36 6.216 1.26 6.279 1.17 6.336 1.04 6.39.93 6.439.79 6.484.66 6.521.51 6.555.36 6.581.2 6.602.03 6.616-.14 6.624-.31 6.624-.49 6.618-.67 6.606-.86 6.586-1.04 6.562-1.23 6.531-1.42 6.495-1.59 6.454-1.78 6.41-1.96 6.362-2.13 6.31-2.3 6.256-2.46 6.201-2.62 6.145-2.77 6.087-2.92 6.031-3.06 5.976-3.19 5.921-3.31 5.87-3.43 5.821-3.54 5.775-3.64 5.734-3.73 5.696-3.83 5.665-3.91 5.636-3.985 5.616-4.058 5.599-4.124 5.588-4.188 5.584-4.245 5.584-4.302 5.592-4.354 5.604-4.406 5.621-4.457 5.643-4.506 5.67-4.557 5.7-4.607 5.735-4.66 5.77-4.715 5.81-4.772 5.849-4.834 5.889-4.897 5.929-4.966 5.968-5.039 6.007-5.118 6.03-5.2 6.07-5.288 6.09-5.382 6.1-5.481 6.12-5.585 6.12-5.693 6.11-5.806 6.11-5.924 6.08-6.046 6.05-6.17 6-6.299 5.96-6.429 5.89-6.563 5.82-6.697 5.73-6.833 5.64-6.97 5.53-7.107 5.41-7.243 5.28-7.379 5.14-7.512 4.98-7.644 4.81-7.772 4.63-7.898 4.44-8.019 4.24-8.135 4.03-8.248 3.81-8.353 3.57-8.453 3.33-8.546 3.07-8.632 2.81-8.71 2.54-8.78 2.26-8.842 1.98-8.896 1.68-8.939 1.38-8.973 1.08-8.997.77-9.013.45-9.016.13-9.011-.19-8.994-.51-8.967-.84-8.929-1.16-8.881-1.49-8.823-1.81-8.754-2.13-8.674-2.45-8.586-2.77-8.486-3.08-8.379-3.38-8.261-3.68-8.135-3.98-8.002-4.26-7.859-4.54-7.71-4.8-7.555-5.06-7.393-5.31-7.226-5.55-7.053-5.77-6.878-5.99-6.697-6.19-6.514-6.38-6.33-6.56-6.143-6.72-5.955-6.87-5.768-7.01-5.581-7.14-5.395-7.25-5.211-7.35-5.029-7.44-4.851-7.51-4.675-7.57-4.505-7.62-4.338-7.66-4.177-7.69-4.021-7.704-3.87-7.708-3.728-7.705-3.59-7.69-3.463-7.663-3.345-7.628-3.236-7.58-3.14-7.521-3.054-7.452-2.983-7.373-2.924-7.284-2.879-7.185-2.849-7.079-2.834-6.965-2.833-6.845-2.848-6.718-2.878-6.586-2.923-6.453-2.983-6.314-3.057-6.176-3.148-6.036-3.251-5.896-3.368-5.759-3.5-5.624-3.644-5.491-3.8-5.363-3.97-5.241-4.15-5.123-4.342-5.013-4.545-4.909-4.756-4.815-4.976-4.729-5.2-4.654-5.429-4.592-5.659-4.542-5.89-4.506-6.118-4.485-6.342-4.477-6.56-4.486-6.768-4.51-6.968-4.549-7.154-4.604-7.326-4.675-7.482-4.76-7.621-4.861-7.74-4.975-7.838-5.102-7.914-5.243-7.966-5.394-7.994-5.557-7.995-5.728-7.972-5.908-7.919-6.095-7.841-6.286-7.735-6.484-7.6-6.682-7.439-6.883-7.249-7.083-7.033-7.282-6.791-7.477-6.524-7.669-6.232-7.854-5.916-8.032-5.58-8.202-5.222-8.363-4.846-8.512-4.452-8.651-4.043-8.777-3.621-8.889-3.187-8.988-2.743-9.072-2.293-9.142-1.837-9.195-1.377-9.235-.917-9.258-.459-9.266-.002-9.26.448-9.238.889-9.202 1.32-9.153 1.735-9.092 2.135-9.019 2.517-8.936 2.877-8.844 3.217-8.744 3.531-8.638 3.822-8.527 4.087-8.413 4.326-8.297 4.539-8.181 4.724-8.065 4.884-7.953 5.018-7.844 5.127-7.74 5.212-7.641 5.274-7.55 5.316-7.467 5.337-7.391 5.342-7.324 5.33-7.267 5.307-7.218 5.272-7.178 5.228-7.147 5.178-7.123 5.127-7.106 5.072-7.097 5.017-7.092 4.963-7.094 4.912-7.101 4.865-7.111 4.821-7.125 4.786-7.141 4.756-7.158 4.735-7.176 4.724-7.191 4.722-7.206 4.73-7.218 4.751-7.224 4.782-7.227 4.825-7.222 4.881-7.209 4.947-7.19 5.027-7.159 5.117-7.12 5.219-7.068 5.331-7.004 5.455-6.929 5.587-6.84 5.728-6.737 5.878-6.62 6.034-6.489 6.196-6.344 6.364-6.183 6.536-6.01 6.709-5.82 6.885-5.618 7.062-5.402 7.237-5.173 7.411-4.931 7.582-4.68 7.748-4.415 7.91-4.142 8.065-3.86 8.213-3.57 8.353-3.275 8.484-2.973 8.605-2.668 8.716-2.36 8.815-2.051 8.905-1.742 8.98-1.434 9.046-1.13 9.097-.827 9.139-.529L436.01 0l9.187.056 9.194.343 9.192.625 9.179.902 9.156 1.174 9.124 1.44 9.082 1.7 9.03 1.952 8.971 2.2 8.903 2.436 8.826 2.668 8.741 2.889 8.65 3.101 8.551 3.305 8.445 3.498 8.334 3.681 8.217 3.854 8.094 4.016 7.968 4.165 7.836 4.306 7.701 4.433 7.564 4.549 7.423 4.653 7.282 4.745 7.138 4.826 6.993 4.895 6.849 4.952 6.705 4.997 6.562 5.03 6.42 5.052 6.28 5.064 6.143 5.065 6.009 5.054 5.877 5.036 5.75 5.006 5.627 4.968 5.509 4.923 5.396 4.868 5.287 4.808 5.184 4.741 5.086 4.668 4.996 4.591 4.909 4.508 4.83 4.423 4.755 4.334 4.689 4.243 4.626 4.151 4.569 4.058 4.52 3.964 4.474 3.872 4.435 3.779 4.401 3.69 4.37 3.6 4.346 3.515 4.325 3.433 4.309 3.353 4.296 3.277 4.286 3.206 4.28 3.138 4.277 3.076 4.276 3.018 4.277 2.965 4.281 2.916 4.286 2.873 4.293 2.834 4.3 2.801 4.31 2.772 4.319 2.749 4.329 2.728 4.341 2.714 4.351 2.704 4.364 2.696 4.374 2.696 4.383 2.7 4.391 2.71 4.395 2.728 4.395 2.752 4.391 2.784 4.382 2.822 4.366 2.868 4.345 2.921 4.316 2.98 4.282 3.046 4.239 3.117 4.189 3.193 4.132 3.275 4.066 3.361 3.993 3.45 3.911 3.542 3.824 3.637 3.727 3.733 3.624 3.831 3.513 3.929 3.396 4.026 3.273 4.124 3.142 4.22 3.006 4.315 2.864 4.407 2.718 4.497 2.565 4.584 2.411 4.666 2.252 4.745 2.094 4.817 1.934 4.885 1.776 4.946 1.616 5 1.47 5.048 1.31 5.09 1.17 5.123 1.03 5.15.89 5.171.77 5.184.65 5.191.55 5.192.44 5.187.36 5.176.28 5.162.21 5.142.16 5.118.11 5.093.08 5.063.05 5.032.05 5 .04 4.968.06 4.934.08 4.903.11 4.871.14 4.843.2 4.816.26 4.793.32 4.774.38 4.757.47 4.745.55 4.739.63 4.736.71 4.74.81 4.748.89 4.762.99 4.783 1.07 4.807z" fill="url(#paint0_linear)"/><defs><linearGradient id="paint0_linear" x1="-3496.77" y1="4306.71" x2="-2635.97" y2="5005.62" gradientUnits="userSpaceOnUse"><stop stop-color="#3A6BEB"/><stop offset="1" stop-color="#3A6BEB" stop-opacity=".89"/></linearGradient></defs></svg>
